X:2490
T:Humours of Glendart
M:6/8
O:Scotland
O:Ireland
R:Jig
Z:Richard Robinson 
%%TUNEURL: http://www.leeds.ac.uk/music/Info/RRTuneBk/gettune/0000098d.html
%%ID:0000098d
K:D
A |\
BAF ADD | FEF DFA \
|1 BAF ADD | FEE E2 :|2 dcB AFE | FDD D2 :|
|:A |\
def d2B | ABA AFA | def d2f | efe edB |\
def edB | ABA AFA | dcB AFE | FDD D2 :|
